X:136
T: Favorite Air (A)
N: O'Farrell's Pocket Companion v.2 (Sky ed. p.72)
N: "Scotch"
M: 6/8
L: 1/8
Q: 150 % "rather slow"
K: Am
B|cBA aba|e>dc/B/ A2c|B>AG g^fg|d>cB/A/ G2 g/a/|
bag eag|e>dc g2e|dBG A>Bc/d/|e>dc/B/ A2 :|
c/B/|cea cea|cea A2 d/c/|Bdg Bdg|Bdg G2 c/B/|
cea cea|cea g2e|dBG A>Bc/d/|e>dc/B/ A2 :|
